findly-builder/apps/searchassist/src/assets/icons/excel_logo.svg

<svg width="30" height="39" viewBox="0 0 30 39" fill="none" xmlns="http://www.w3.org/2000/svg">
<path d="M30 10.8333V36.8333C30 38.0304 29.0411 39 27.8571 39H2.14286C0.958929 39 0 38.0304 0 36.8333V2.16667C0 0.969583 0.958929 0 2.14286 0H19.2857L30 10.8333Z" fill="#93D3A2"/>
<path d="M19 0V8.8C19 10.0155 19.9845 11 21.2 11H30L19 0Z" fill="#28A745"/>
<path d="M6.81818 17.7273H5.30895L7.57812 21.3636L5.28054 25H6.80043L8.41974 22.3544H8.47656L10.0959 25H11.6229L9.34659 21.3636L11.5874 17.7273H10.0852L8.47656 20.3906H8.41974L6.81818 17.7273ZM13.8503 17.7273H12.5648V25H13.8503V17.7273ZM16.2234 19.5455H14.8597L16.479 22.2727L14.8171 25H16.1808L17.3242 23.0362L18.4783 25H19.8313L18.1587 22.2727L19.8029 19.5455H18.4428L17.3242 21.5589L16.2234 19.5455ZM25.1083 20.9872C24.9308 20.0639 24.1921 19.4744 22.9137 19.4744C21.5998 19.4744 20.7049 20.1207 20.7085 21.1293C20.7049 21.9247 21.195 22.4503 22.2425 22.6669L23.1729 22.8622C23.6737 22.9723 23.908 23.1747 23.908 23.4837C23.908 23.8565 23.5032 24.1371 22.8924 24.1371C22.3029 24.1371 21.9194 23.8814 21.8093 23.3913L20.5558 23.5121C20.7156 24.5135 21.5572 25.1065 22.896 25.1065C24.2596 25.1065 25.2219 24.3999 25.2255 23.3665C25.2219 22.5888 24.7212 22.1129 23.6914 21.8892L22.761 21.6903C22.207 21.5661 21.9869 21.3743 21.9904 21.0582C21.9869 20.6889 22.3952 20.4332 22.9315 20.4332C23.5245 20.4332 23.837 20.7564 23.9364 21.1151L25.1083 20.9872Z" fill="white"/>
</svg>

<svg width="30" height="39" fill="none" xmlns="http://www.w3.org/2000/svg"><path d="M30 10.833v26A2.154 2.154 0 0 1 27.857 39H2.143A2.154 2.154 0 0 1 0 36.833V2.167C0 .97.959 0 2.143 0h17.143L30 10.833Z" fill="#93D3A2"/><path d="M19 0v8.8a2.2 2.2 0 0 0 2.2 2.2H30L19 0Z" fill="#28A745"/><path d="M6.818 17.727H5.31l2.27 3.637L5.28 25H6.8l1.619-2.646h.057L10.096 25h1.527l-2.276-3.636 2.24-3.637h-1.502l-1.608 2.664H8.42l-1.602-2.664Zm7.032 0h-1.285V25h1.285v-7.273Zm2.373 1.819H14.86l1.619 2.727L14.817 25h1.364l1.143-1.964L18.478 25h1.353l-1.672-2.727 1.644-2.727h-1.36l-1.119 2.013-1.1-2.014Zm8.885 1.441c-.177-.923-.916-1.513-2.194-1.513-1.314 0-2.21.647-2.206 1.655-.003.796.487 1.321 1.535 1.538l.93.195c.5.11.735.313.735.622 0 .372-.405.653-1.016.653-.59 0-.973-.256-1.083-.746l-1.253.121c.16 1.002 1.001 1.595 2.34 1.595 1.364 0 2.326-.707 2.33-1.74-.004-.778-.505-1.254-1.535-1.478l-.93-.199c-.554-.124-.774-.316-.77-.632-.004-.37.404-.625.94-.625.593 0 .906.323 1.005.682l1.172-.128Z" fill="#fff"/></svg>
